rospo-icon-theme-classic-common/48x48/apps/openage.svg

<svg height="48" width="48" xmlns="http://www.w3.org/2000/svg"><path d="m24 4c-11.08 0-20 8.92-20 20s8.92 20 20 20 20-8.92 20-20-8.92-20-20-20z" fill="#4f4f4f"/><path d="m24 4c-11.079015 0-19.9982222 8.92-19.9982222 20 0 .168-.004.333 0 .5.2643765-10.846 9.0871922-19.5 19.9982222-19.5s19.734246 8.654 19.998223 19.5c.004-.167 0-.332 0-.5 0-11.08-8.919208-20-19.998223-20z" fill="#fff" opacity=".1"/><path d="m4.0117 24.5c-.0041.167-.0117.332-.0117.5 0 11.08 8.92 20 20 20s20-8.92 20-20c0-.168-.008-.333-.012-.5-.264 10.846-9.076 19.5-19.988 19.5s-19.724-8.654-19.988-19.5z" opacity=".2"/><path d="m14 12v12c0 2.6626 1.3801 4.8347 3.1758 6.3848l-3.1758 4.3691c2.9086 2.1044 6.409 3.246 10 3.2461s7.0914-1.1417 10-3.2461l-3.1758-4.3691c1.7957-1.55 3.1758-3.7222 3.1758-6.3848v-12h-4v4.8008c-.80411-.48682-1.6361-1.3467-4-1.668v-3.1328h-4v3.1328c-2.3639.3213-3.1959 1.1812-4 1.668v-4.8008zm10 7c2.6957 0 4.2857.5 6 1.5v4.5c0 2.5362-4 5-6 6-2-1-6-3.4638-6-6v-4.5c1.7143-1 3.3043-1.5 6-1.5z" opacity=".2"/><path d="m14 11v12c0 2.6626 1.3801 4.8347 3.1758 6.3848l-3.1758 4.3691c2.9086 2.1044 6.409 3.246 10 3.2461s7.0914-1.1417 10-3.2461l-3.1758-4.3691c1.7957-1.55 3.1758-3.7222 3.1758-6.3848v-12h-4v4.8008c-.80411-.48682-1.6361-1.3467-4-1.668v-3.1328h-4v3.1328c-2.3639.3213-3.1959 1.1812-4 1.668v-4.8008zm10 7c2.6957 0 4.2857.5 6 1.5v4.5c0 2.5362-4 5-6 6-2-1-6-3.4638-6-6v-4.5c1.7143-1 3.3043-1.5 6-1.5z" fill="#fff"/></svg>

<svg xmlns="http://www.w3.org/2000/svg" width="48" height="48" version="1">
 <path style="fill:#4f4f4f" d="M 24,4 C 12.92,4 4,12.92 4,24 4,35.08 12.92,44 24,44 35.08,44 44,35.08 44,24 44,12.92 35.08,4 24,4 Z"/>
 <path style="opacity:0.1;fill:#ffffff" d="M 24,4 C 12.920985,4 4.0017778,12.92 4.0017778,24 c 0,0.168 -0.004,0.333 0,0.5 C 4.2661543,13.654 13.08897,5 24,5 c 10.91103,0 19.734246,8.654 19.998223,19.5 0.004,-0.167 0,-0.332 0,-0.5 C 43.998223,12.92 35.079015,4 24,4 Z"/>
 <path style="opacity:0.2" d="M 4.0117,24.5 C 4.0076,24.667 4,24.832 4,25 4,36.08 12.92,45 24,45 35.08,45 44,36.08 44,25 44,24.832 43.992,24.667 43.988,24.5 43.724,35.346 34.912,44 24,44 13.088,44 4.276,35.346 4.012,24.5 Z"/>
 <path style="opacity:0.2" d="m 14,12 0,12 c 0,2.6626 1.3801,4.8347 3.1758,6.3848 L 14,34.7539 c 2.9086,2.1044 6.409,3.246 10,3.2461 3.591,1e-4 7.0914,-1.1417 10,-3.2461 L 30.8242,30.3848 C 32.6199,28.8348 34,26.6626 34,24 l 0,-12 -4,0 0,4.8008 c -0.80411,-0.48682 -1.6361,-1.3467 -4,-1.668 L 26,12 l -4,0 0,3.1328 c -2.3639,0.3213 -3.1959,1.1812 -4,1.668 L 18,12 Z m 10,7 c 2.6957,0 4.2857,0.5 6,1.5 l 0,4.5 c 0,2.5362 -4,5 -6,6 -2,-1 -6,-3.4638 -6,-6 l 0,-4.5 c 1.7143,-1 3.3043,-1.5 6,-1.5 z"/>
 <path style="fill:#ffffff" d="m 14,11 0,12 c 0,2.6626 1.3801,4.8347 3.1758,6.3848 L 14,33.7539 c 2.9086,2.1044 6.409,3.246 10,3.2461 3.591,1e-4 7.0914,-1.1417 10,-3.2461 L 30.8242,29.3848 C 32.6199,27.8348 34,25.6626 34,23 l 0,-12 -4,0 0,4.8008 c -0.80411,-0.48682 -1.6361,-1.3467 -4,-1.668 L 26,11 l -4,0 0,3.1328 c -2.3639,0.3213 -3.1959,1.1812 -4,1.668 L 18,11 Z m 10,7 c 2.6957,0 4.2857,0.5 6,1.5 l 0,4.5 c 0,2.5362 -4,5 -6,6 -2,-1 -6,-3.4638 -6,-6 l 0,-4.5 c 1.7143,-1 3.3043,-1.5 6,-1.5 z"/>
</svg>
